X: 1
T: Miss Ommannay's Reel
C: R. Mackintosh
R: jig
B: RSCDS Graded 3
Z: 2020 John Chambers <jc:trillian.mit.edu>
N: Suggested tune for the dance "Bethankit", an 8x32 Jig
M: 6/8
L: 1/8
K: D
A |\
"D"F2A AFA | AFA AFA | "G"G{A}BG "D"FAF | "Em"BGE "A7"E2A |\
"D"F2A AFA | AFA d2A | "G"B{c}dB "D"AFd | "(A)"AFD "D"D2 :|
|: f/g/ |\
"D"afd dfd | ded "A"c2A | "G"B{c}dB "D"AFA | "Em"BGE "A7"E2 f/g/ |\
"D"afd dfd | ded "A"c2A | "G"B{c}dB "D"AFd | "(A)"AFD "D"D2 :|
